X:97
%%vocalfont Baskerville10Pro 11
%%pagewidth 7in
T:Up, tails all
M:2/4
L:1/8
K:F
%%score 1 2
V:1 clef-treble
V:2 clef-bass octave=-1
V:1
(A/B/)&F|cc A(G/A/)&E2F2|BB G(A/B/)&D2E2|cc A>B&E2F2|
w:Fly,* mer-ry news, a-*mong the crews, That* love to hear of
V:2
F,|C,2F,2|G,2C2|A,2D2|
V:1
c3(d/e/)&E2B2|ff c(B/c/)&A2F2|dd A(A/B/)&F2DF|[FAc]2C2|[A,F]3:||
w:jests, &c.|||Up tails all!
V:2
C2c2|d2AG/A/|B2FD|C2[CEG]2|[F,F]3:||

